assets/images/icons/liked-star.svg

<svg width="20" height="21" viewBox="0 0 20 21" fill="none" xmlns="http://www.w3.org/2000/svg">
<g id="fi_7927801" clip-path="url(#clip0_509_11153)">
<g id="Group">
<path id="Vector" d="M8.59938 6.62485L9.99974 6.04426L11.4001 6.62485C11.5877 6.70231 11.8032 6.67782 11.9689 6.55766C12.1337 6.4377 12.2243 6.24043 12.2083 6.03727L12.0892 4.52606L13.074 3.37313C13.2064 3.2184 13.2486 3.00547 13.1857 2.81168C13.1228 2.6175 12.9634 2.4702 12.765 2.42293L11.2911 2.06895L10.4993 0.776138C10.2886 0.407935 9.71087 0.407974 9.50013 0.776138L8.70833 2.06895L7.2345 2.42293C7.03606 2.4702 6.87669 2.6175 6.8138 2.81168C6.75091 3.00547 6.79309 3.2184 6.92552 3.37313L7.91028 4.52606L7.79114 6.03727C7.77513 6.24043 7.86575 6.43774 8.03059 6.55766C8.19587 6.67719 8.4111 6.70297 8.59938 6.62485Z" fill="#7FB51F"/>
<path id="Vector_2" d="M19.9708 5.11654C19.9079 4.92236 19.7486 4.77506 19.5501 4.72779L18.0763 4.37381L17.2845 3.081C17.1779 2.90713 16.9888 2.80127 16.7849 2.80127C16.581 2.80127 16.3919 2.90717 16.2853 3.081L15.4935 4.37381L14.0197 4.72779C13.8212 4.77506 13.6618 4.92236 13.599 5.11654C13.5361 5.31033 13.5783 5.52326 13.7107 5.67799L14.6954 6.83092L14.5763 8.34213C14.5603 8.54529 14.6509 8.7426 14.8158 8.86252C14.981 8.98209 15.1962 9.00787 15.3845 8.92971L16.7849 8.34912L18.1853 8.92971C18.3729 9.00717 18.5884 8.98268 18.754 8.86252C18.9189 8.74256 19.0095 8.54529 18.9935 8.34213L18.8743 6.83092L19.8591 5.67799C19.9915 5.52326 20.0337 5.31033 19.9708 5.11654Z" fill="#7FB51F"/>
<path id="Vector_3" d="M4.83919 8.97473C4.96106 8.97473 5.08177 8.93684 5.18372 8.86301C5.34856 8.74305 5.43919 8.54578 5.42317 8.34262L5.30403 6.83141L6.2888 5.67848C6.42122 5.52375 6.46341 5.31082 6.40052 5.11703C6.33763 4.92285 6.17825 4.77555 5.97981 4.72828L4.50599 4.3743L3.71419 3.08148C3.60755 2.90762 3.41849 2.80176 3.21458 2.80176C3.01067 2.80176 2.82161 2.90766 2.71497 3.08148L1.92317 4.3743L0.449345 4.72828C0.250907 4.77555 0.0915323 4.92285 0.0286416 5.11703C-0.034249 5.31082 0.0079385 5.52375 0.14036 5.67848L1.12513 6.83141L1.00599 8.34262C0.98997 8.54578 1.08059 8.74309 1.24544 8.86301C1.41067 8.98258 1.62591 9.00836 1.81419 8.9302L3.21458 8.34961L4.61497 8.9302C4.68724 8.95988 4.76341 8.97473 4.83919 8.97473Z" fill="#7FB51F"/>
<path id="Vector_4" d="M16.8984 14.5947L16.2051 18.5685C16.0309 19.5634 15.1672 20.2892 14.1574 20.2892H10.1586C9.8793 20.2892 9.60547 20.2333 9.35195 20.1291C9.09844 20.0236 8.86523 19.8697 8.66797 19.672C8.65586 19.6599 8.64336 19.6478 8.63086 19.6357V13.0349L8.65742 13.0255C9.22109 12.8232 9.66055 12.3716 9.84648 11.8021L10.1961 10.6833L10.6672 9.17593C10.8059 8.7521 11.2613 8.52124 11.6855 8.65991C12.4621 8.91304 12.9559 9.63491 12.9559 10.4095C12.9559 10.5994 12.9262 10.7923 12.8637 10.9822L12.3387 12.7048H15.3102C16.3117 12.7048 17.0711 13.6083 16.8984 14.5947Z" fill="#7FB51F"/>
<g id="Group_2">
<path id="Vector_5" d="M6.87496 20.5001H4.16266C3.8409 20.5001 3.58008 20.2393 3.58008 19.9175V12.8931C3.58008 12.5714 3.8409 12.3105 4.16266 12.3105H6.87496C7.19672 12.3105 7.45754 12.5714 7.45754 12.8931V19.9175C7.45754 20.2393 7.19672 20.5001 6.87496 20.5001Z" fill="#7FB51F"/>
</g>
</g>
</g>
<defs>
<clipPath id="clip0_509_11153">
<rect width="20" height="20" fill="white" transform="translate(0 0.5)"/>
</clipPath>
</defs>
</svg>

<svg xmlns="http://www.w3.org/2000/svg" width="20" height="21" fill="none"><g clip-path="url(#a)"><path fill="#7FB51F" d="m8.6 6.625 1.4-.58 1.4.58a.587.587 0 0 0 .808-.588l-.119-1.51.985-1.154a.586.586 0 0 0-.309-.95l-1.474-.354L10.5.776c-.21-.368-.788-.368-.999 0L8.708 2.07l-1.474.354a.585.585 0 0 0-.308.95l.984 1.153-.119 1.511a.587.587 0 0 0 .808.588M19.97 5.117a.59.59 0 0 0-.42-.39l-1.474-.353-.791-1.293a.586.586 0 0 0-1 0l-.792 1.293-1.473.354a.584.584 0 0 0-.31.95l.985 1.153-.119 1.511a.587.587 0 0 0 .808.588l1.4-.58 1.401.58a.587.587 0 0 0 .809-.588l-.12-1.511.985-1.153a.59.59 0 0 0 .112-.561M4.84 8.975a.587.587 0 0 0 .583-.632L5.304 6.83l.985-1.153a.586.586 0 0 0-.31-.95l-1.473-.354-.792-1.293a.586.586 0 0 0-.999 0l-.792 1.293-1.474.354a.585.585 0 0 0-.309.95l.985 1.153-.119 1.512a.587.587 0 0 0 .808.587l1.4-.58 1.401.58a.6.6 0 0 0 .224.045m12.059 5.621-.693 3.973a2.08 2.08 0 0 1-2.048 1.721H10.16a2.1 2.1 0 0 1-1.49-.617l-.038-.036v-6.601l.026-.01a1.94 1.94 0 0 0 1.19-1.223l.35-1.119.47-1.507a.807.807 0 0 1 1.018-.516 1.84 1.84 0 0 1 1.179 2.322l-.525 1.723h2.971c1.002 0 1.761.903 1.588 1.89M6.875 20.5H4.163a.583.583 0 0 1-.583-.582v-7.025c0-.322.26-.583.583-.583h2.712c.322 0 .583.261.583.583v7.025a.583.583 0 0 1-.583.582"/></g><defs><clipPath id="a"><path fill="#fff" d="M0 .5h20v20H0z"/></clipPath></defs></svg>
